Images/Graphics/RECOMMENED.svg

<svg width="428" height="82" viewBox="0 0 428 82" fill="none" xmlns="http://www.w3.org/2000/svg">
<rect x="2.48438" y="2.52979" width="422.999" height="76.735" rx="38.3675" stroke="#BDBDBD" stroke-width="4"/>
<path d="M26.6611 56.7064V25.9064H39.9931C42.7504 25.9064 45.1264 26.3611 47.1211 27.2704C49.1158 28.1504 50.6558 29.4264 51.7411 31.0984C52.8264 32.7704 53.3691 34.7651 53.3691 37.0824C53.3691 39.3704 52.8264 41.3504 51.7411 43.0224C50.6558 44.6651 49.1158 45.9264 47.1211 46.8064C45.1264 47.6864 42.7504 48.1264 39.9931 48.1264H30.6211L33.7891 45.0024V56.7064H26.6611ZM46.2411 56.7064L38.5411 45.5304H46.1531L53.9411 56.7064H46.2411ZM33.7891 45.7944L30.6211 42.4504H39.5971C41.7971 42.4504 43.4398 41.9811 44.5251 41.0424C45.6104 40.0744 46.1531 38.7544 46.1531 37.0824C46.1531 35.3811 45.6104 34.0611 44.5251 33.1224C43.4398 32.1838 41.7971 31.7144 39.5971 31.7144H30.6211L33.7891 28.3264V45.7944ZM65.5726 38.3144H80.4006V43.8584H65.5726V38.3144ZM66.1006 50.9864H82.8646V56.7064H59.0166V25.9064H82.2926V31.6264H66.1006V50.9864ZM103.276 57.2344C100.9 57.2344 98.6854 56.8531 96.6321 56.0904C94.6081 55.2984 92.8481 54.1838 91.3521 52.7464C89.8561 51.3091 88.6828 49.6224 87.8321 47.6864C87.0108 45.7504 86.6001 43.6238 86.6001 41.3064C86.6001 38.9891 87.0108 36.8624 87.8321 34.9264C88.6828 32.9904 89.8561 31.3038 91.3521 29.8664C92.8774 28.4291 94.6521 27.3291 96.6761 26.5664C98.7001 25.7744 100.915 25.3784 103.32 25.3784C105.989 25.3784 108.395 25.8478 110.536 26.7864C112.707 27.6958 114.525 29.0451 115.992 30.8344L111.416 35.0584C110.36 33.8558 109.187 32.9611 107.896 32.3744C106.605 31.7584 105.197 31.4504 103.672 31.4504C102.235 31.4504 100.915 31.6851 99.7121 32.1544C98.5094 32.6238 97.4681 33.2984 96.5881 34.1784C95.7081 35.0584 95.0188 36.0998 94.5201 37.3024C94.0508 38.5051 93.8161 39.8398 93.8161 41.3064C93.8161 42.7731 94.0508 44.1078 94.5201 45.3104C95.0188 46.5131 95.7081 47.5544 96.5881 48.4344C97.4681 49.3144 98.5094 49.9891 99.7121 50.4584C100.915 50.9278 102.235 51.1624 103.672 51.1624C105.197 51.1624 106.605 50.8691 107.896 50.2824C109.187 49.6664 110.36 48.7424 111.416 47.5104L115.992 51.7344C114.525 53.5238 112.707 54.8878 110.536 55.8264C108.395 56.7651 105.975 57.2344 103.276 57.2344ZM135.121 57.2344C132.686 57.2344 130.428 56.8384 128.345 56.0464C126.292 55.2544 124.502 54.1398 122.977 52.7024C121.481 51.2651 120.308 49.5784 119.457 47.6424C118.636 45.7064 118.225 43.5944 118.225 41.3064C118.225 39.0184 118.636 36.9064 119.457 34.9704C120.308 33.0344 121.496 31.3478 123.021 29.9104C124.546 28.4731 126.336 27.3584 128.389 26.5664C130.442 25.7744 132.672 25.3784 135.077 25.3784C137.512 25.3784 139.741 25.7744 141.765 26.5664C143.818 27.3584 145.593 28.4731 147.089 29.9104C148.614 31.3478 149.802 33.0344 150.653 34.9704C151.504 36.8771 151.929 38.9891 151.929 41.3064C151.929 43.5944 151.504 45.7211 150.653 47.6864C149.802 49.6224 148.614 51.3091 147.089 52.7464C145.593 54.1544 143.818 55.2544 141.765 56.0464C139.741 56.8384 137.526 57.2344 135.121 57.2344ZM135.077 51.1624C136.456 51.1624 137.717 50.9278 138.861 50.4584C140.034 49.9891 141.061 49.3144 141.941 48.4344C142.821 47.5544 143.496 46.5131 143.965 45.3104C144.464 44.1078 144.713 42.7731 144.713 41.3064C144.713 39.8398 144.464 38.5051 143.965 37.3024C143.496 36.0998 142.821 35.0584 141.941 34.1784C141.09 33.2984 140.078 32.6238 138.905 32.1544C137.732 31.6851 136.456 31.4504 135.077 31.4504C133.698 31.4504 132.422 31.6851 131.249 32.1544C130.105 32.6238 129.093 33.2984 128.213 34.1784C127.333 35.0584 126.644 36.0998 126.145 37.3024C125.676 38.5051 125.441 39.8398 125.441 41.3064C125.441 42.7438 125.676 44.0784 126.145 45.3104C126.644 46.5131 127.318 47.5544 128.169 48.4344C129.049 49.3144 130.076 49.9891 131.249 50.4584C132.422 50.9278 133.698 51.1624 135.077 51.1624ZM157.286 56.7064V25.9064H163.182L176.294 47.6424H173.17L186.062 25.9064H191.914L192.002 56.7064H185.314L185.27 36.1584H186.502L176.206 53.4504H172.994L162.478 36.1584H163.974V56.7064H157.286ZM199.31 56.7064V25.9064H205.206L218.318 47.6424H215.194L228.086 25.9064H233.938L234.026 56.7064H227.338L227.294 36.1584H228.526L218.23 53.4504H215.018L204.502 36.1584H205.998V56.7064H199.31ZM247.889 38.3144H262.717V43.8584H247.889V38.3144ZM248.417 50.9864H265.181V56.7064H241.333V25.9064H264.609V31.6264H248.417V50.9864ZM270.853 56.7064V25.9064H276.749L294.921 48.0824H292.061V25.9064H299.101V56.7064H293.249L275.033 34.5304H277.893V56.7064H270.853ZM306.388 56.7064V25.9064H320.38C323.724 25.9064 326.672 26.5518 329.224 27.8424C331.776 29.1038 333.77 30.8784 335.208 33.1664C336.645 35.4544 337.364 38.1678 337.364 41.3064C337.364 44.4158 336.645 47.1291 335.208 49.4464C333.77 51.7344 331.776 53.5238 329.224 54.8144C326.672 56.0758 323.724 56.7064 320.38 56.7064H306.388ZM313.516 50.8544H320.028C322.081 50.8544 323.856 50.4731 325.352 49.7104C326.877 48.9184 328.05 47.8038 328.872 46.3664C329.722 44.9291 330.148 43.2424 330.148 41.3064C330.148 39.3411 329.722 37.6544 328.872 36.2464C328.05 34.8091 326.877 33.7091 325.352 32.9464C323.856 32.1544 322.081 31.7584 320.028 31.7584H313.516V50.8544ZM349.295 38.3144H364.123V43.8584H349.295V38.3144ZM349.823 50.9864H366.587V56.7064H342.739V25.9064H366.015V31.6264H349.823V50.9864ZM372.259 56.7064V25.9064H386.251C389.595 25.9064 392.543 26.5518 395.095 27.8424C397.647 29.1038 399.641 30.8784 401.079 33.1664C402.516 35.4544 403.235 38.1678 403.235 41.3064C403.235 44.4158 402.516 47.1291 401.079 49.4464C399.641 51.7344 397.647 53.5238 395.095 54.8144C392.543 56.0758 389.595 56.7064 386.251 56.7064H372.259ZM379.387 50.8544H385.899C387.952 50.8544 389.727 50.4731 391.223 49.7104C392.748 48.9184 393.921 47.8038 394.743 46.3664C395.593 44.9291 396.019 43.2424 396.019 41.3064C396.019 39.3411 395.593 37.6544 394.743 36.2464C393.921 34.8091 392.748 33.7091 391.223 32.9464C389.727 32.1544 387.952 31.7584 385.899 31.7584H379.387V50.8544Z" fill="#BDBDBD"/>
</svg>

<svg width="428" height="82" fill="none" xmlns="http://www.w3.org/2000/svg"><rect x="2.484" y="2.53" width="422.999" height="76.735" rx="38.367" stroke="#BDBDBD" stroke-width="4"/><path d="M26.661 56.706v-30.8h13.332c2.757 0 5.133.455 7.128 1.364 1.995.88 3.535 2.156 4.62 3.828 1.085 1.672 1.628 3.667 1.628 5.984 0 2.288-.543 4.268-1.628 5.94-1.085 1.643-2.625 2.904-4.62 3.784-1.995.88-4.37 1.32-7.128 1.32h-9.372l3.168-3.124v11.704h-7.128Zm19.58 0-7.7-11.176h7.612l7.788 11.176h-7.7ZM33.79 45.794l-3.168-3.344h8.976c2.2 0 3.843-.469 4.928-1.408 1.085-.968 1.628-2.288 1.628-3.96 0-1.7-.543-3.02-1.628-3.96-1.085-.938-2.728-1.408-4.928-1.408h-8.976l3.168-3.388v17.468Zm31.784-7.48H80.4v5.544H65.573v-5.544Zm.528 12.672h16.764v5.72H59.017v-30.8h23.276v5.72H66.1v19.36Zm37.175 6.248c-2.376 0-4.59-.38-6.644-1.144-2.024-.792-3.784-1.906-5.28-3.344a15.701 15.701 0 0 1-3.52-5.06c-.821-1.936-1.232-4.062-1.232-6.38 0-2.317.41-4.444 1.232-6.38a15.702 15.702 0 0 1 3.52-5.06 15.797 15.797 0 0 1 5.324-3.3c2.024-.792 4.239-1.188 6.644-1.188 2.669 0 5.075.47 7.216 1.408 2.171.91 3.989 2.26 5.456 4.048l-4.576 4.224c-1.056-1.202-2.229-2.097-3.52-2.684-1.291-.616-2.699-.924-4.224-.924-1.437 0-2.757.235-3.96.704a8.978 8.978 0 0 0-3.124 2.024 9.524 9.524 0 0 0-2.068 3.124c-.47 1.203-.704 2.538-.704 4.004 0 1.467.235 2.802.704 4.004a9.523 9.523 0 0 0 2.068 3.124 8.976 8.976 0 0 0 3.124 2.024c1.203.47 2.523.704 3.96.704 1.525 0 2.933-.293 4.224-.88 1.291-.616 2.464-1.54 3.52-2.772l4.576 4.224c-1.467 1.79-3.285 3.154-5.456 4.092-2.141.94-4.561 1.408-7.26 1.408Zm31.845 0c-2.435 0-4.693-.396-6.776-1.188-2.053-.792-3.843-1.906-5.368-3.344a15.706 15.706 0 0 1-3.52-5.06c-.821-1.936-1.232-4.048-1.232-6.336 0-2.288.411-4.4 1.232-6.336a15.391 15.391 0 0 1 3.564-5.06c1.525-1.437 3.315-2.552 5.368-3.344 2.053-.792 4.283-1.188 6.688-1.188 2.435 0 4.664.396 6.688 1.188 2.053.792 3.828 1.907 5.324 3.344a15.391 15.391 0 0 1 3.564 5.06c.851 1.907 1.276 4.02 1.276 6.336 0 2.288-.425 4.415-1.276 6.38a15.39 15.39 0 0 1-3.564 5.06c-1.496 1.408-3.271 2.508-5.324 3.3-2.024.792-4.239 1.188-6.644 1.188Zm-.044-6.072c1.379 0 2.64-.234 3.784-.704a9.075 9.075 0 0 0 3.08-2.024 8.972 8.972 0 0 0 2.024-3.124c.499-1.202.748-2.537.748-4.004 0-1.466-.249-2.8-.748-4.004a8.973 8.973 0 0 0-2.024-3.124 8.627 8.627 0 0 0-3.036-2.024c-1.173-.469-2.449-.704-3.828-.704s-2.655.235-3.828.704a9.184 9.184 0 0 0-3.036 2.024 9.529 9.529 0 0 0-2.068 3.124c-.469 1.203-.704 2.538-.704 4.004 0 1.438.235 2.772.704 4.004a9.894 9.894 0 0 0 2.024 3.124 9.075 9.075 0 0 0 3.08 2.024c1.173.47 2.449.704 3.828.704Zm22.209 5.544v-30.8h5.896l13.112 21.736h-3.124l12.892-21.736h5.852l.088 30.8h-6.688l-.044-20.548h1.232L176.206 53.45h-3.212l-10.516-17.292h1.496v20.548h-6.688Zm42.024 0v-30.8h5.896l13.112 21.736h-3.124l12.892-21.736h5.852l.088 30.8h-6.688l-.044-20.548h1.232L218.23 53.45h-3.212l-10.516-17.292h1.496v20.548h-6.688Zm48.579-18.392h14.828v5.544h-14.828v-5.544Zm.528 12.672h16.764v5.72h-23.848v-30.8h23.276v5.72h-16.192v19.36Zm22.436 5.72v-30.8h5.896l18.172 22.176h-2.86V25.906h7.04v30.8h-5.852L275.033 34.53h2.86v22.176h-7.04Zm35.535 0v-30.8h13.992c3.344 0 6.292.646 8.844 1.936 2.552 1.262 4.546 3.036 5.984 5.324 1.437 2.288 2.156 5.002 2.156 8.14 0 3.11-.719 5.823-2.156 8.14-1.438 2.288-3.432 4.078-5.984 5.368-2.552 1.262-5.5 1.892-8.844 1.892h-13.992Zm7.128-5.852h6.512c2.053 0 3.828-.38 5.324-1.144 1.525-.792 2.698-1.906 3.52-3.344.85-1.437 1.276-3.124 1.276-5.06 0-1.965-.426-3.652-1.276-5.06-.822-1.437-1.995-2.537-3.52-3.3-1.496-.792-3.271-1.188-5.324-1.188h-6.512v19.096Zm35.779-12.54h14.828v5.544h-14.828v-5.544Zm.528 12.672h16.764v5.72h-23.848v-30.8h23.276v5.72h-16.192v19.36Zm22.436 5.72v-30.8h13.992c3.344 0 6.292.646 8.844 1.936 2.552 1.262 4.546 3.036 5.984 5.324 1.437 2.288 2.156 5.002 2.156 8.14 0 3.11-.719 5.823-2.156 8.14-1.438 2.288-3.432 4.078-5.984 5.368-2.552 1.262-5.5 1.892-8.844 1.892h-13.992Zm7.128-5.852h6.512c2.053 0 3.828-.38 5.324-1.144 1.525-.792 2.698-1.906 3.52-3.344.85-1.437 1.276-3.124 1.276-5.06 0-1.965-.426-3.652-1.276-5.06-.822-1.437-1.995-2.537-3.52-3.3-1.496-.792-3.271-1.188-5.324-1.188h-6.512v19.096Z" fill="#BDBDBD"/></svg>
